X: 1
T: Jackie Colemans #1
R: reel
Z: 2006 John Chambers <jc@trillian.mit.edu>
M: C|
L: 1/8
K: D
   B | "D"AFF2 "A7"EFDE | "D"F2AF BFAF | "Em"E2BE dEBE |1,3 "A7"ABde fed :|2,4 "A7"ABde "D"fdd :|
|: e | "D"fddc "A7"dfag | "D"fdcd fagf | "A7"eAA2 eAfA | eAA2 efge |
  y3 | "D"fddc "A7"dfag | "D"fdcd fagf |  "G"g2gf gbag | "A7"faeg "D"fdd :|
